packages/icons/svg/Media_BookStore_32px.svg

<svg xmlns="http://www.w3.org/2000/svg" viewBox="0 0 32 32"><path d="M27 3H11a2 2 0 00-2 2v11H5a2 2 0 00-2 2v7a4 4 0 004 4h20a2 2 0 002-2V5a2 2 0 00-2-2zM9 25a2 2 0 01-4 0v-7h4zm18 2H10.44a3.91 3.91 0 00.56-2V5h16z"/><path d="M14 13h10a1 1 0 001-1V8a1 1 0 00-1-1H14a1 1 0 00-1 1v4a1 1 0 001 1zm0-5h10v4H14zM13.5 17H24a.5.5 0 000-1H13.5a.5.5 0 000 1zM13.5 20.5H24a.5.5 0 000-1H13.5a.5.5 0 000 1zM13.5 24H19a.5.5 0 000-1h-5.5a.5.5 0 000 1z"/></svg>

<svg xmlns="http://www.w3.org/2000/svg" viewBox="0 0 32 32"><defs></defs><g id="Icon"><path  d="M27,3H11A2,2,0,0,0,9,5V16H5a2,2,0,0,0-2,2v7a4,4,0,0,0,4,4H27a2,2,0,0,0,2-2V5A2,2,0,0,0,27,3ZM9,25a2,2,0,0,1-4,0V18H9Zm18,2H10.44A3.91,3.91,0,0,0,11,25V5H27Z"/><path  d="M14,13H24a1,1,0,0,0,1-1V8a1,1,0,0,0-1-1H14a1,1,0,0,0-1,1v4A1,1,0,0,0,14,13Zm0-5H24v4h0v0H14Z"/><path  d="M13.5,17H24a.5.5,0,0,0,0-1H13.5a.5.5,0,0,0,0,1Z"/><path  d="M13.5,20.5H24a.5.5,0,0,0,0-1H13.5a.5.5,0,0,0,0,1Z"/><path  d="M13.5,24H19a.5.5,0,0,0,0-1H13.5a.5.5,0,0,0,0,1Z"/></g></svg>
